X:1
T:©cpdl
T:©cpdl
T:©cpdl
Z:©cpdl
%%score [ 1 2 3 ]
L:1/8
Q:1/4=120
M:none
K:C
V:1 treble-8 nm="Tenor 1" snm="T 1"
V:2 treble-8 nm="Tenor 2" snm="T 2"
V:3 bass nm="Bass" snm="B"
V:1
 !stemless![De]2 |[M:2/2] A4 d4- | d2 d4 c2 | B6 B2 | A4 z4 | z2 d4 c2 | B4 A4 | G6 F2 | %8
w: |O sa-|* crum con-|vi- vi-|um|in quo|Chri- stus|in quo|
 E4 ^F2 G2- | G2 ^F2 z2 G2- | G2 F2 E2 E2 | D2 ^F3 E F2 | G3 G ^F2 A2- | A2 B4 c2 | d2 d3 c d2 | %15
w: Chri- * *|* stus su-|* * * mi-|tur: re- * *|co- li- tur re-|* co- li-|tur me- * *|
 e3 e d2 B2- | BA B2 c3 c | B2 B4 AG | A6 G2 | d4 e2 E2- | (ED)(E^F) G4 | D2 d4 AB | c2 B2 A4 | %23
w: mo- ri- a me-|* * * mo- ri-|a pas- si- *|o- nis|e- jus: pas-|* * si- * o-|nis pas- si- *|o- nis e-|
[M:3/4] !fermata!B2 G2 G2 | G4 c2 | c4 B2 | c2 G2 G2 | A4 B2- | B2 c4- | c2 B3 B | A6 | z2 A2 A2 | %32
w: jus: mens im-|ple- tur|gra- ti-|a: et fu-|tu- rae|_ glo-|* * ri-|ae|no- bis|
 G6- | G4 F2- | F2 E4 | D2 d2 d2 | c6 | B6 | A4 A2 | z2 G2 G2 | ^F2 D2 G2- | (GA) ^F4 | G2 d2 d2 | %43
w: pi-|* gnus|_ da-|tur no- bis|pi-|gnus|da- tur|no- bis|pi- gnus da-||tur no- bis|
 e4 d2- | d2 e4 | d6- | d6 |] %47
w: pi- gnus|_ da-|tur|_|
V:2
 !stemless![Ce]2 |[M:2/2] ^F8 | B4 A2 A2- | A2 G4 G2 | ^F4 z2 A2- | A2 G2 ^F2 (EF) | G3 G D2 d2- | %7
w: |O|sa- crum con-|* vi- vi-|um in|_ quo Chri- stus _|su- mi- tur: in|
 d2 c2 (B2 AB) | c2 G2 A2 B2 | c4 B4 | ^c2 d4 c2 | d2 A3 G A2 | B3 B A2 ^F2- | FE ^F2 G3 G | %14
w: _ quo Chri- * *|* stus in quo|Chri- stus|su- * mi-|tur: re- * *|co- li- tur re-|* * * co- li-|
 ^F4 G4 | G2 c2 B2 D2- | DC D2 E3 E | D2 z2 z2 d2- | d2 AB c4 | c2 B2 z2 c2- | c2 GA B4- | %21
w: tur me-|mo- ri- a me-|* * * mo- ri-|a pas-|* si- * o-|* nis pas-|* si- * o-|
 B2 (AG) A4- | A2 G3 ^F/E/ F2 |[M:3/4] !fermata!G2 E2 D2 | E4 E2- | E2 F3 F | E2 E2 E2 | F4 F2 | %28
w: * nis _ e-||jus: mens im-|ple- tur|_ gra- ti-|a: et fu-|tu- rae|
 G4 A2- | A2 G3 G | ^F2 F2 F2 | E4 E2- | E2 z2 d2 | (d2 ^c2) A2 | d3 e ^c2 | d6 | z2 A2 A2 | %37
w: glo- *|* * ri-|ae no- bis|pi- gnus|_ no-|bis _ pi-|gnus da- *|tur|no- bis|
 G4 G2 | z2 d2 d2 | c6- | c4 B2- | B2 A4 | G2 B2 B2 | c4 G2- | G2 (G2 c2) | B6 | B6 |] %47
w: pi- gnus|no- bis|pi-|* gnus|_ da-|tur no- bis|pi- *|* gnus _|da-|tur|
V:3
 !stemless![G,,G,]2 |[M:2/2] D,8 | G,4 ^F,2 F,2 | G,4 G,,4 | D,2 D,4 C,2 | B,,4 A,,4 | z2 G,4 F,2 | %7
w: |O|sa- crum con-|vi- vi-|um in quo|Chri- stus|in quo|
 E,4 D,4 | z2 C,4 B,,2 | A,,4 G,,4 | A,,4 A,,4 | D,8 | z4 z2 D,2- | D,C, D,2 E,3 E, | %14
w: Chri- stus|in quo|Chri- stus|su- mi-|tur:|re-|* * * co- li-|
 D,2 B,,3 A,, B,,2 | C,3 C, G,,4 | z2 G,,2 C,3 C, | G,,2 G,4 D,E, | F,6 E,2 | ^F,2 G,2 C,4 | %20
w: tur me- * *|mo- ri- a|me- mo- ri-|a pas- si- *|o- nis|e- * jus:|
 z4 z2 G,2- | G,2 (F,E,) F,4- | F,2 G,2 D,4 |[M:3/4] !fermata!G,,2 C,2 B,,2 | C,4 A,,2- | %25
w: pas-|* si- * o-|* nis e-|jus: mens im-|ple- tur|
 A,,2 D,3 D, | C,6 | z2 D,2 D,2 | E,4 ^F,2 | G,4 G,2 | D,2 D,2 D,2 | C,6- | C,2 B,,4 | A,,6- | %34
w: _ gra- ti-|a:|et fu-|tu- rae|glo- ri-|ae no- bis|pi-|* gnus|da-|
 A,,6 | D,6 | z6 | z2 G,2 G,2 | F,6- | F,2 E,4 | D,6- | D,6 | G,,2 G,2 G,2 | C,4 B,,2- | B,,2 C,4 | %45
w: |||no- bis|pi-|* gnus|da-||tur no- bis|pi- gnus|_ da-|
 G,,6- | G,,6 |] %47
w: tur|_|

